images/icon-twitter.svg

<svg width="28" height="23" viewBox="0 0 28 23" fill="none" xmlns="http://www.w3.org/2000/svg">
<path opacity="0.6" d="M8.77052 22.3097C19.1291 22.3097 24.7964 13.7256 24.7964 6.28376C24.7964 6.04244 24.791 5.79576 24.7803 5.55444C25.8828 4.75715 26.8342 3.76961 27.5898 2.6382C26.5631 3.09502 25.473 3.39336 24.3567 3.52304C25.532 2.81851 26.4121 1.71172 26.8337 0.40785C25.728 1.06315 24.5187 1.5254 23.2579 1.7748C22.4083 0.872096 21.285 0.274397 20.0617 0.074115C18.8384 -0.126167 17.5831 0.0821226 16.49 0.666781C15.397 1.25144 14.5269 2.1799 14.0145 3.30862C13.502 4.43734 13.3756 5.70345 13.6549 6.9112C11.4159 6.79885 9.22559 6.21723 7.22586 5.20406C5.22612 4.19089 3.46163 2.76878 2.04676 1.02992C1.32765 2.26975 1.1076 3.73688 1.43134 5.13312C1.75507 6.52936 2.5983 7.74995 3.78964 8.54682C2.89525 8.51843 2.02046 8.27762 1.23753 7.84431V7.91402C1.23673 9.21513 1.68653 10.4764 2.51049 11.4833C3.33444 12.4903 4.48169 13.1809 5.75721 13.4376C4.9287 13.6643 4.05915 13.6973 3.21583 13.5341C3.57576 14.6531 4.27605 15.6318 5.21897 16.3336C6.16188 17.0354 7.30038 17.4253 8.47557 17.4489C6.48045 19.0161 4.01589 19.8661 1.47885 19.8621C1.02893 19.8614 0.579446 19.8339 0.132812 19.7795C2.71018 21.4331 5.70834 22.3113 8.77052 22.3097Z" fill="white"/>
</svg>

<svg xmlns="http://www.w3.org/2000/svg" width="28" height="23" fill="none"><path fill="#fff" d="M8.77 22.31c10.36 0 16.026-8.584 16.026-16.026 0-.242-.005-.488-.016-.73a11.439 11.439 0 0 0 2.81-2.916 11.106 11.106 0 0 1-3.233.885A5.664 5.664 0 0 0 26.834.408a11.324 11.324 0 0 1-3.576 1.367 5.64 5.64 0 0 0-9.603 5.136A15.999 15.999 0 0 1 2.047 1.03 5.64 5.64 0 0 0 3.79 8.547a5.64 5.64 0 0 1-2.552-.703v.07a5.63 5.63 0 0 0 4.52 5.524 5.599 5.599 0 0 1-2.542.096 5.644 5.644 0 0 0 5.26 3.915 11.298 11.298 0 0 1-8.343 2.33 15.98 15.98 0 0 0 8.638 2.53Z" opacity=".6"/></svg>
